X:1
T:All Nature’s Works His Praise Declare
T:All Nature’s Works His Praise Declare
T:Gottfried Wilhelm Fink, 1842
T:Henry Ware, Jr., 1822
T:Public Domain Courtesy of the Cyber Hymnal™
C:Gottfried Wilhelm Fink, 1842
Z:Public Domain
Z:Courtesy of the Cyber Hymnal™
%%score ( 1 2 ) ( 3 4 )
L:1/8
Q:1/4=117
M:4/4
K:Bb
V:1 treble 
V:2 treble 
V:3 bass 
V:4 bass 
V:1
 F2 | [DB]2 [FB]2 [FA]2 [EG]2 | [DF]3 [EG] [DF]2 F2 | [EG]2 [Gc]2 [FB]2 [EA]2 | [DB]6 F2 | %5
w: 1.~All|na- ture’s works His|praise de- clare, to|whom they all be-|long; There|
w: 2.~To|God the tribes of|o- cean cry, and|birds up- on the|wing; To|
w: 3.~Great|God, to Thee we|con- se- crate our|voic- es and our|skill; We|
 [DB]2 [FB]2 [FA]2 [EG]2 | [DF]3 [EG] [DF]2 [Fd]2 | [Fc]2 [FB]2 [FA]2 [=EG]2 | F6 F2 | %9
w: is a voice in|ev- ery star, in|ev- ery breeze a|song. Sweet|
w: God the powers that|dwell on high their|tune- ful trib- ute|bring. Like|
w: bid the peal- ing|organ wait to speak|a- lone Thy will.|Lord, while|
 [CA]2 [CF]2 [DB]2 F2 | [Ec]2 F2 [Fd]2 c2 | [Ge]2 [Gd]2 [Gc]2 [GB]2 | (B4 A2) F2 | %13
w: mus- ic fills the|world a- broad with|strains of love and|power; * The|
w: them, let us the|throne sur- round, with|them loud chor- us|raise, * While|
w: the mu- sic round|us floats may earth|born pass- ions die;|O * grant|
 [DB]2 [FB]2 [Gc]2 [Fc]2 | [Fd]3 [Ge] [Bf]2 [FB]2 | [Gc]2 [Ee]2 [Fd]2 [Fc]2 | [FB]6 |] %17
w: storm- y sea sings|praise to God, the|thun- der and the|shower.|
w: in- stru- ments of|loft- ier sound as-|sist our fee- ble|praise.|
w: its rich and swell-|ing notes may lift|our souls on high!||
V:2
 F2 | x8 | x6 F2 | x8 | x6 F2 | x8 | x8 | x8 | F6 F2 | x6 F2 | x2 F2 c2 x2 | x8 | F6 F2 | x8 | x8 | %15
 x8 | x6 |] %17
V:3
 F,2 | [B,,B,]2 [D,F,]2 (z F,) (G,A,) | [B,,B,]2 [B,,A,]2 [B,,B,]2 [D,B,]2 | %3
 [E,B,]2 [C,E]2 [F,D]2 [F,,C]2 | [B,,B,]6 F,2 | [B,,B,]2 [D,B,]2 B,2 ([G,B,][A,C]) | %6
 ([B,D]2 [A,C]2) [B,D]2 [B,,B,]2 | [A,,C]2 [D,B,]2 [C,C]2 [C,B,]2 | [F,A,]6 F,2 | %9
 [F,,F,]2 [A,,F,]2 [B,,F,]2 [D,B,]2 | [F,A,]2 [A,E]2 [B,D]2 [G,D]2 | %11
 [C,C]2 [E,=B,]2 [E,C]2 [=E,_D]2 | [F,C]6 F,2 | [B,,B,]2 [D,B,]2 B,2 ([G,B,][A,C]) | %14
 [B,D]2 [B,C]2 [D,D]2 [D,D]2 | [E,C]2 [C,C]2 [F,B,]2 [F,,E]2 | [B,,D]6 |] %17
V:4
 F,2 | x4 E,2 E,2 | x8 | x8 | x6 F,2 | x4 (E,F,) x2 | x8 | x8 | x6 F,2 | x8 | x8 | x8 | x6 F,2 | %13
 x4 (E,F,) x2 | x8 | x8 | x6 |] %17

